logo/pivotal_tracker.svg

<?xml version="1.0" encoding="UTF-8" standalone="no"?>
<svg width="256px" height="256px" viewBox="0 0 256 256" version="1.1" xmlns="http://www.w3.org/2000/svg" xmlns:xlink="http://www.w3.org/1999/xlink" preserveAspectRatio="xMidYMid">
	<g>
		<path d="M94.0114747,58.8463838 L122.564525,108.298343 C127.097535,107.085576 132.046869,107.439838 136.546263,109.544727 L151.557172,83.5465051 L126.466586,40.1014949 L93.7166869,59.0144646 L93.7192727,59.0144646 L94.0114747,58.8463838 Z M50.9672727,122.817939 L108.086303,122.817939 C108.541414,121.11903 109.198222,119.443394 110.118788,117.853091 C111.670303,115.161212 113.751919,112.976162 116.141253,111.308283 L101.132929,85.3178182 L50.9517576,85.3178182 L50.9517576,123.141172 L50.9672727,123.141172 L50.9672727,122.817939 Z M145.63297,138.358949 C144.076283,141.050828 142.007596,143.228121 139.623434,144.893414 L154.642101,170.904566 L204.810343,170.904566 L204.810343,133.409616 L147.66804,133.409616 C147.207758,135.108525 146.545778,136.768646 145.63297,138.358949 Z M142.354101,113.614869 C145.819152,117.064404 147.880081,121.594828 148.293818,126.345051 L178.305293,126.345051 L203.395879,82.8974545 L170.925253,64.1448081 L142.354101,113.614869 Z M84.8316768,192.082747 L113.402828,142.592 C109.953293,139.137293 107.892364,134.619798 107.468283,129.885091 L77.4412929,129.885091 L52.3507071,173.312 L85.0928485,192.237899 L84.8316768,192.082747 Z M161.753212,197.368242 L133.205333,147.913697 C128.674909,149.136808 123.720404,148.792889 119.215838,146.675071 L104.199758,172.681051 L129.274828,216.115717 L162.027313,197.210505 L161.753212,197.368242 Z" fill="#ed7d1a"></path>
		<path d="M127.888808,0.232727273 C57.3724444,0.232727273 0,57.5896566 0,128.095677 C0,198.622384 57.3724444,256 127.888808,256 C198.4,256 255.759515,198.622384 255.759515,128.095677 C255.759515,57.5896566 198.4,0.232727273 127.888808,0.232727273 L127.888808,0.232727273 Z M127.888808,26.1223434 C184.208808,26.1223434 229.864727,71.7730909 229.864727,128.095677 C229.864727,184.433778 184.208808,230.107798 127.888808,230.107798 C71.5610505,230.107798 25.8973737,184.433778 25.8973737,128.095677 C25.8973737,71.7730909 71.5610505,26.1223434 127.888808,26.1223434 L127.888808,26.1223434 Z" fill="#5282b0"></path>
	</g>
</svg>

<svg viewBox="0 0 256 256" xmlns="http://www.w3.org/2000/svg"><path fill="#ED7D1A" d="M94.01 58.84l28.55 49.45c4.53-1.22 9.48-.86 13.98 1.24l15.01-26 -25.1-43.45L93.7 58.99h0l.29-.17Zm-43.05 63.97h57.11c.45-1.7 1.11-3.38 2.03-4.97 1.55-2.7 3.63-4.88 6.02-6.55l-15.01-26H50.92v37.82h.01v-.33Zm94.66 15.54c-1.56 2.69-3.63 4.86-6.01 6.53l15.01 26.01h50.16v-37.5h-57.15c-.47 1.69-1.13 3.35-2.04 4.94Zm-3.28-24.75c3.46 3.44 5.52 7.97 5.93 12.73h30.01l25.09-43.45 -32.48-18.76 -28.58 49.47Zm-57.53 78.46l28.57-49.5c-3.45-3.46-5.52-7.98-5.94-12.71H77.41l-25.1 43.42 32.74 18.92 -.27-.16Zm76.92 5.28l-28.55-49.46c-4.54 1.22-9.49.87-13.99-1.24l-15.02 26 25.07 43.43 32.75-18.91 -.28.15Z"/><path fill="#5282B0" d="M127.88.23C57.36.23-.01 57.58-.01 128.09c0 70.52 57.37 127.9 127.88 127.9 70.51 0 127.87-57.38 127.87-127.91C255.74 57.57 198.38.21 127.86.21v0Zm0 25.88c56.32 0 101.97 45.65 101.97 101.97 0 56.33-45.66 102.01-101.98 102.01 -56.33 0-102-45.68-102-102.02 0-56.33 45.66-101.98 101.99-101.98v0Z"/></svg>
